svgs/sharp-regular/wave-pulse.svg

<svg xmlns="http://www.w3.org/2000/svg" viewBox="0 0 640 512"><!--! Font Awesome Pro 6.6.0 by @fontawesome - https://fontawesome.com License - https://fontawesome.com/license (Commercial License) Copyright 2024 Fonticons, Inc. --><path d="M291.8 0L312 0l16 0 19.3 0 4.1 18.9 69.2 318.2 37.2-90.3 6.1-14.9 16.1 0 136 0 24 0 0 48-24 0-119.9 0L446.2 401.1 440.1 416 424 416l-16 0-19.3 0-4.1-18.9L321.8 108.4 255.7 492.1 252.2 512 232 512l-16 0-18.9 0-4.4-18.4L141.1 280 24 280 0 280l0-48 24 0 136 0 18.9 0 4.4 18.4 38.1 157.8L288.3 19.9 291.8 0z"/></svg>

<svg xmlns="http://www.w3.org/2000/svg" viewBox="0 0 640 512"><!--! Font Awesome Pro 6.4.0 by @fontawesome - https://fontawesome.com License - https://fontawesome.com/license (Commercial License) Copyright 2023 Fonticons, Inc. --><path d="M291.8 0H312h16 19.3l4.1 18.9 69.2 318.2 37.2-90.3 6.1-14.9H480 616h24v48H616 496.1L446.2 401.1 440.1 416H424 408 388.7l-4.1-18.9L321.8 108.4 255.7 492.1 252.2 512H232 216 197.1l-4.4-18.4L141.1 280H24 0V232H24 160h18.9l4.4 18.4 38.1 157.8L288.3 19.9 291.8 0z"/></svg>
